app/client/src/assets/icons/blueprintjs/16px/many-to-one.svg

<svg width="16" height="16" viewBox="0 0 16 16" fill="none" xmlns="http://www.w3.org/2000/svg">
<path fill-rule="evenodd" clip-rule="evenodd" d="M3 2C2.44772 2 2 2.44772 2 3C2 3.55228 2.44772 4 3 4C3.55228 4 4 3.55228 4 3C4 2.44772 3.55228 2 3 2ZM3 0C4.38538 0 5.55143 0.939058 5.89635 2.21537C6.06412 2.25873 6.23506 2.31081 6.40608 2.37338C7.48214 2.76706 8.64278 3.61487 8.98058 5.30389C9.14217 6.11182 9.64501 6.51404 10.274 6.74577C10.7489 5.71528 11.7909 5 13 5C14.6569 5 16 6.34315 16 8C16 9.65685 14.6569 11 13 11C11.7909 11 10.7489 10.2847 10.274 9.25423C9.64501 9.48596 9.14217 9.88818 8.98058 10.6961C8.64278 12.3851 7.48214 13.2329 6.40608 13.6266C6.23506 13.6892 6.06411 13.7413 5.89635 13.7846C5.55143 15.0609 4.38538 16 3 16C1.34315 16 0 14.6569 0 13C0 11.3431 1.34315 10 3 10C4.20909 10 5.25112 10.7153 5.72603 11.7458C6.35498 11.514 6.85783 11.1118 7.01942 10.3039C7.23462 9.22788 7.78375 8.49328 8.43222 8C7.78375 7.50672 7.23462 6.77212 7.01942 5.69612C6.85783 4.88818 6.35499 4.48597 5.72603 4.25424C5.25112 5.28473 4.20909 6 3 6C1.34315 6 0 4.65685 0 3C0 1.34315 1.34315 0 3 0ZM4 13C4 12.4477 3.55228 12 3 12C2.44772 12 2 12.4477 2 13C2 13.5523 2.44772 14 3 14C3.55228 14 4 13.5523 4 13ZM12 8C12 8.55228 12.4477 9 13 9C13.5523 9 14 8.55228 14 8C14 7.44772 13.5523 7 13 7C12.4477 7 12 7.44772 12 8Z" fill="black"/>
</svg>

<svg xmlns="http://www.w3.org/2000/svg" width="16" height="16"><path fill-rule="evenodd" d="M3 2a1 1 0 1 0 0 2 1 1 0 0 0 0-2Zm0-2c1.385 0 2.551.94 2.896 2.215.168.044.34.096.51.158 1.076.394 2.237 1.242 2.575 2.93.161.809.664 1.211 1.293 1.443a3 3 0 1 1 0 2.508c-.629.232-1.132.634-1.293 1.442-.338 1.69-1.499 2.537-2.575 2.93a5.436 5.436 0 0 1-.51.159A3.001 3.001 0 0 1 0 13a3 3 0 0 1 5.726-1.254c.629-.232 1.132-.634 1.293-1.442.216-1.076.765-1.81 1.413-2.304-.648-.493-1.197-1.228-1.413-2.304-.161-.808-.664-1.21-1.293-1.442A3 3 0 1 1 3 0Zm1 13a1 1 0 1 0-2 0 1 1 0 0 0 2 0Zm8-5a1 1 0 1 0 2 0 1 1 0 0 0-2 0Z" clip-rule="evenodd"/></svg>
